svgs/1F92F.svg

<svg xmlns="http://www.w3.org/2000/svg" xmlns:xlink="http://www.w3.org/1999/xlink" preserveAspectRatio="none" viewBox="0 0 72 72"><defs><linearGradient id="a" x1="35.4" x2="35.4" y1="35.05" y2="18.15" gradientUnits="userSpaceOnUse" spreadMethod="pad"><stop offset="0%" stop-color="#F15A24"/><stop offset="100%" stop-color="#F1DC0C"/></linearGradient><path id="b" fill="#F15A24" d="M57.7 43.1q2.54-2.164 2.55-5.25.004-3.046-1.65-4.2-2.15-1-4.35-1.75-3.35-1.2-6.95-1.9-5.4-1.05-11.2-1.05-12.05 0-22.45 4.7-1.694 1.153-1.55 4.8.131 3.69 2.3 5.35l21.7 15.25L57.7 43.1z"/><path id="d" fill="url(#a)" d="M44.55 33.9q-3.55-8.1 0-16.5h-16.9q3.85 8.4 0 16.5h16.9z"/><g id="f"><path fill="#FCC21B" d="M55.9 35.65l-3.65 2.85-5.05-1.05L43.95 40l-4.45-1.4-2.8 1.4-3.35-1.4-3.8 1-3-2.4-3.45 1.6-3.35-2.75-5.15 1.05-1.8-1.45-2.35 1.55q-.05-.05-.1-.05-.2.3-.3.65-4 9.4-4 22.15 0 4.85 8.75 8.35 8.8 3.4 21.3 3.4 12.4 0 21.2-3.4 5.7-2.25 7.75-5.1 1.05-1.55 1.05-3.25 0-12.75-4.05-22.15-.1-.35-.3-.65l-5.85-1.5z"/><path fill="#F2F2F2" d="M43.65 4.9l-.05-.15q-1.4-2.8-7.5-3.5-7.5-.5-10.35 3.25Q16.2-1.1 15.5 7.85q-4.95.6-4.2 5.2.7 4.6 4.35 4.45Q12.6 22 17 24.7q4.35 2.65 6.4-3.4.75 2.7 4.75 3.45 4.5.35 6.5-3L38.2 24q4 2.5 6.45-1.25 2.95 3.5 7 2.25 5.15-.35 5.4-5.85 4.25-.8 3.9-6.15-.35-5.4-4.65-5.4.15-4-5.35-4.7-4.9-.85-7.3 2m-13.5 4.35Q34.1 6 38.1 9.4q-4-3.4-7.95-.15M21.2 17.4q4.95-2.75 8.45.6-3.5-3.35-8.45-.6m23.35 0q3.316-5.07 10.25-2.65-6.934-2.42-10.25 2.65z"/></g><g id="i"><path fill="#FFF" d="M11.1 11.1Q13 9.2 13 6.5q0-2.7-1.9-4.6Q9.2 0 6.5 0 3.8 0 1.9 1.9 0 3.8 0 6.5q0 2.7 1.9 4.6Q3.8 13 6.5 13q2.7 0 4.6-1.9M6.5 3.25q1.35 0 2.3.95.95.95.95 2.3 0 1.35-.95 2.3-.95.95-2.3.95-1.35 0-2.3-.95-.95-.95-.95-2.3 0-1.35.95-2.3.95-.95 2.3-.95z"/><path fill="#2F2F2F" d="M8.8 4.2q-.95-.95-2.3-.95-1.35 0-2.3.95-.95.95-.95 2.3 0 1.35.95 2.3.95.95 2.3.95 1.35 0 2.3-.95.95-.95.95-2.3 0-1.35-.95-2.3z"/></g><path id="j" fill="#ED6C30" d="M87.5 79.3q-1.14-1.4-2.3-2.55-5.129-5-10.6-7.25-4.808-1.95-10.4-1.95-5.758 0-10.45 1.95-5.529 2.25-10.3 7.25-1.29 1.15-2.15 2.55-.976 1.15-1.65 2.4-1.7 2.8-2.05 5.55-.35 2.4.35 4.8 3.366 12.3 26.85 12.35 23.116-.05 26.45-12.35.601-2.4.15-4.9-.511-2.75-2.3-5.6-.688-1.15-1.6-2.25z"/><path id="c" fill="none" stroke="#C73200" stroke-linecap="round" stroke-linejoin="round" stroke-width="2" d="M54.25 31.9q2.2.75 4.35 1.75 1.654 1.154 1.65 4.225-.01 3.061-2.55 5.225L36.1 59.05 14.4 43.8q-2.169-1.66-2.3-5.325-.144-3.672 1.55-4.825 10.4-4.7 22.45-4.7 5.8 0 11.2 1.05 3.6.7 6.95 1.9z"/><path id="e" fill="none" stroke="#C73200" stroke-linecap="round" stroke-linejoin="round" stroke-width="2" d="M27.65 33.9q3.85-8.1 0-16.5h16.9q-3.55 8.4 0 16.5"/><path id="g" fill="none" stroke="#D8D8D8" stroke-linecap="round" stroke-linejoin="round" stroke-width="1.5" d="M44.55 17.4q3.316-5.07 10.25-2.65M21.2 17.4q4.95-2.75 8.45.6m.5-8.75Q34.1 6 38.1 9.4"/><path id="h" fill="none" stroke="#CCC" stroke-linecap="round" stroke-linejoin="round" stroke-width="2" d="M43.65 4.9q2.4-2.85 7.3-2 5.5.7 5.35 4.7 4.3 0 4.65 5.4.35 5.35-3.9 6.15-.25 5.5-5.4 5.85-4.05 1.25-7-2.25Q42.2 26.5 38.2 24l-3.55-2.25q-2 3.35-6.5 3-4-.75-4.75-3.45-2.05 6.05-6.4 3.4-4.4-2.7-1.35-7.2-3.65.15-4.35-4.45-.75-4.6 4.2-5.2.7-8.95 10.25-3.35Q28.6.75 36.1 1.25q6.1.7 7.5 3.5"/></defs><g><use xlink:href="#b"/><use xlink:href="#c"/></g><g><use xlink:href="#d"/><use xlink:href="#e"/></g><g><use xlink:href="#f"/><use xlink:href="#g"/><use xlink:href="#h"/></g><use transform="matrix(1.29259 0 0 1.29259 40 41.1)" xlink:href="#i"/><use transform="matrix(1.29259 0 0 1.29259 16.05 41.1)" xlink:href="#i"/><use transform="matrix(.2319 0 0 .2319 21.45 40.85)" xlink:href="#j"/></svg>

<svg xmlns="http://www.w3.org/2000/svg" version="1.1" xmlns:xlink="http://www.w3.org/1999/xlink" preserveAspectRatio="none" x="0px" y="0px" width="72px" height="72px" viewBox="0 0 72 72">
<defs>
<linearGradient id="Gradient_1" gradientUnits="userSpaceOnUse" x1="35.4" y1="35.050000000000004" x2="35.4" y2="18.15" spreadMethod="pad">
<stop  offset="0%" stop-color="#F15A24"/>

<stop  offset="100%" stop-color="#F1DC0C"/>
</linearGradient>

<g id="Layer4_0_FILL">
<path fill="#F15A24" stroke="none" d="
M 57.7 43.1
Q 60.239453125 40.9361328125 60.25 37.85 60.253515625 34.8044921875 58.6 33.65 56.45 32.65 54.25 31.9 50.9 30.7 47.3 30 41.9 28.95 36.1 28.95 24.05 28.95 13.65 33.65 11.9560546875 34.8029296875 12.1 38.45 12.2314453125 42.1408203125 14.4 43.8
L 36.1 59.05 57.7 43.1 Z"/>
</g>

<g id="Layer3_0_FILL">
<path fill="url(#Gradient_1)" stroke="none" d="
M 44.55 33.9
Q 41 25.8 44.55 17.4
L 27.65 17.4
Q 31.5 25.8 27.65 33.9
L 44.55 33.9 Z"/>
</g>

<g id="Layer1_0_FILL">
<path fill="#FCC21B" stroke="none" d="
M 55.9 35.65
L 52.25 38.5 47.2 37.45 43.95 40 39.5 38.6 36.7 40 33.35 38.6 29.55 39.6 26.55 37.2 23.1 38.8 19.75 36.05 14.6 37.1 12.8 35.65 10.45 37.2
Q 10.4 37.15 10.35 37.15 10.15 37.45 10.05 37.8 6.05 47.2 6.05 59.95 6.05 64.8 14.8 68.3 23.6 71.7 36.1 71.7 48.5 71.7 57.3 68.3 63 66.05 65.05 63.2 66.1 61.65 66.1 59.95 66.1 47.2 62.05 37.8 61.95 37.45 61.75 37.15
L 55.9 35.65 Z"/>

<path fill="#F2F2F2" stroke="none" d="
M 43.65 4.9
L 43.6 4.75
Q 42.2 1.95 36.1 1.25 28.6 0.75 25.75 4.5 16.2 -1.1 15.5 7.85 10.55 8.45 11.3 13.05 12 17.65 15.65 17.5 12.6 22 17 24.7 21.35 27.35 23.4 21.3 24.15 24 28.15 24.75 32.65 25.1 34.65 21.75
L 38.2 24
Q 42.2 26.5 44.65 22.75 47.6 26.25 51.65 25 56.8 24.65 57.05 19.15 61.3 18.35 60.95 13 60.6 7.6 56.3 7.6 56.45 3.6 50.95 2.9 46.05 2.05 43.65 4.9
M 30.15 9.25
Q 34.1 6 38.1 9.4 34.1 6 30.15 9.25
M 21.2 17.4
Q 26.15 14.65 29.65 18 26.15 14.65 21.2 17.4
M 44.55 17.4
Q 47.8662109375 12.3298828125 54.8 14.75 47.8662109375 12.3298828125 44.55 17.4 Z"/>
</g>

<g id="Symbol_1_0_Layer0_0_FILL">
<path fill="#FFFFFF" stroke="none" d="
M 11.1 11.1
Q 13 9.2 13 6.5 13 3.8 11.1 1.9 9.2 0 6.5 0 3.8 0 1.9 1.9 0 3.8 0 6.5 0 9.2 1.9 11.1 3.8 13 6.5 13 9.2 13 11.1 11.1
M 6.5 3.25
Q 7.85 3.25 8.8 4.2 9.75 5.15 9.75 6.5 9.75 7.85 8.8 8.8 7.85 9.75 6.5 9.75 5.15 9.75 4.2 8.8 3.25 7.85 3.25 6.5 3.25 5.15 4.2 4.2 5.15 3.25 6.5 3.25 Z"/>

<path fill="#2F2F2F" stroke="none" d="
M 8.8 4.2
Q 7.85 3.25 6.5 3.25 5.15 3.25 4.2 4.2 3.25 5.15 3.25 6.5 3.25 7.85 4.2 8.8 5.15 9.75 6.5 9.75 7.85 9.75 8.8 8.8 9.75 7.85 9.75 6.5 9.75 5.15 8.8 4.2 Z"/>
</g>

<g id="Layer0_2_FILL">
<path fill="#ED6C30" stroke="none" d="
M 87.5 79.3
Q 86.3599609375 77.9 85.2 76.75 80.07109375 71.75 74.6 69.5 69.791796875 67.55 64.2 67.55 58.4419921875 67.55 53.75 69.5 48.2212890625 71.75 43.45 76.75 42.159765625 77.9 41.3 79.3 40.323828125 80.45 39.65 81.7 37.950390625 84.5 37.6 87.25 37.25 89.65 37.95 92.05 41.3162109375 104.35 64.8 104.4 87.9162109375 104.35 91.25 92.05 91.8509765625 89.65 91.4 87.15 90.888671875 84.4 89.1 81.55 88.4119140625 80.4 87.5 79.3 Z"/>
</g>

<path id="Layer4_0_1_STROKES" stroke="#C73200" stroke-width="2" stroke-linejoin="round" stroke-linecap="round" fill="none" d="
M 54.25 31.9
Q 56.45 32.65 58.6 33.65 60.253515625 34.8044921875 60.25 37.875 60.239453125 40.9361328125 57.7 43.1
L 36.1 59.05 14.4 43.8
Q 12.2314453125 42.1408203125 12.1 38.475 11.9560546875 34.8029296875 13.65 33.65 24.05 28.95 36.1 28.95 41.9 28.95 47.3 30 50.9 30.7 54.25 31.9 Z"/>

<path id="Layer3_0_1_STROKES" stroke="#C73200" stroke-width="2" stroke-linejoin="round" stroke-linecap="round" fill="none" d="
M 27.65 33.9
Q 31.5 25.8 27.65 17.4
L 44.55 17.4
Q 41 25.8 44.55 33.9"/>

<path id="Layer1_0_1_STROKES" stroke="#D8D8D8" stroke-width="1.5" stroke-linejoin="round" stroke-linecap="round" fill="none" d="
M 44.55 17.4
Q 47.8662109375 12.3298828125 54.8 14.75
M 21.2 17.4
Q 26.15 14.65 29.65 18
M 30.15 9.25
Q 34.1 6 38.1 9.4"/>

<path id="Layer1_0_2_STROKES" stroke="#CCCCCC" stroke-width="2" stroke-linejoin="round" stroke-linecap="round" fill="none" d="
M 43.65 4.9
Q 46.05 2.05 50.95 2.9 56.45 3.6 56.3 7.6 60.6 7.6 60.95 13 61.3 18.35 57.05 19.15 56.8 24.65 51.65 25 47.6 26.25 44.65 22.75 42.2 26.5 38.2 24
L 34.65 21.75
Q 32.65 25.1 28.15 24.75 24.15 24 23.4 21.3 21.35 27.35 17 24.7 12.6 22 15.65 17.5 12 17.65 11.3 13.05 10.55 8.45 15.5 7.85 16.2 -1.1 25.75 4.5 28.6 0.75 36.1 1.25 42.2 1.95 43.6 4.75"/>
</defs>

<g id="Camada_1">
<g transform="matrix( 1, 0, 0, 1, 0,0) ">
<use xlink:href="#Layer4_0_FILL"/>

<use xlink:href="#Layer4_0_1_STROKES"/>
</g>
</g>

<g id="Camada_2">
<g transform="matrix( 1, 0, 0, 1, 0,0) ">
<use xlink:href="#Layer3_0_FILL"/>

<use xlink:href="#Layer3_0_1_STROKES"/>
</g>
</g>

<g id="Camada_3"/>

<g id="_____1">
<g transform="matrix( 1, 0, 0, 1, 0,0) ">
<use xlink:href="#Layer1_0_FILL"/>

<use xlink:href="#Layer1_0_1_STROKES"/>

<use xlink:href="#Layer1_0_2_STROKES"/>
</g>
</g>

<g id="Layer_1">
<g transform="matrix( 1.2925872802734375, 0, 0, 1.2925872802734375, 40,41.1) ">
<g transform="matrix( 1, 0, 0, 1, 0,0) ">
<use xlink:href="#Symbol_1_0_Layer0_0_FILL"/>
</g>
</g>

<g transform="matrix( 1.2925872802734375, 0, 0, 1.2925872802734375, 16.05,41.1) ">
<g transform="matrix( 1, 0, 0, 1, 0,0) ">
<use xlink:href="#Symbol_1_0_Layer0_0_FILL"/>
</g>
</g>

<g transform="matrix( 0.231903076171875, 0, 0, 0.231903076171875, 21.45,40.85) ">
<use xlink:href="#Layer0_2_FILL"/>
</g>
</g>
</svg>
